X: 40005
T: Three Men On A White Horse
R: reel
M: 4/4
K: Amajor
|:a2ga faec|d2df e2e2|a2ga faec|1 BAGB A2e2:|2 BAGB A2AB||
|:c2e2 A2AB|c2e2 A2AB|c2e2 A2e2|1 EFGB A2AB:|2 EFGB A2A2||
K: Amix
A2EA GFED|[FA]2[FA]2 E2E2|A2AE GFE2|FEDF EDCE|
A,2A2 GFED|[FA]2[FA]2 E2E2|FGAG FEDF|EDCE A,2A,B,||
K: Amaj
|:C2EC A,2A,B,|C2EC A,2A,B,|1 C2E2 A,2E2|B,2EB, A,2A,B,:|2 C2EC A,2E2|B,4 A,4||

